9/img/tg.svg

<svg width="16" height="14" viewBox="0 0 16 14" fill="none" xmlns="http://www.w3.org/2000/svg">
<path d="M15.7035 1.20204L13.3269 12.4099C13.1475 13.2007 12.68 13.3976 12.0157 13.0252L8.39433 10.3567L6.64721 12.0375C6.45371 12.231 6.29227 12.3924 5.91934 12.3924L6.17977 8.70467L12.891 2.64035C13.1829 2.38048 12.8274 2.23592 12.4376 2.49635L4.14071 7.72085L0.568836 6.6026C-0.207976 6.36017 -0.222039 5.82579 0.730836 5.45285L14.7016 0.0702911C15.3485 -0.172146 15.9144 0.214291 15.7035 1.2026V1.20204Z" fill="#D22856"/>
</svg>

<svg width="16" height="14" fill="none" xmlns="http://www.w3.org/2000/svg"><path d="M15.704 1.202 13.326 12.41c-.18.79-.647.988-1.311.615l-3.622-2.668-1.747 1.68c-.193.194-.355.355-.728.355l.26-3.687 6.712-6.065c.292-.26-.064-.404-.453-.144L4.14 7.721.569 6.603c-.777-.243-.791-.777.162-1.15L14.7.07c.647-.242 1.213.144 1.002 1.133v-.001Z" fill="#D22856"/></svg>
